!!!!SEGMENT: pl-lzu--m-15111--001-047_noskowski-zygmunt--spiewnik-dla-dzieci-op-34-47-odlot.krn
!!!cenid: 18xx:4744
!!!COM: Noskowski, Zygmunt
!!!COM-rismID: pe106604
!!!CDT: 1846/05/02-1909/07/23
!!!CNT: Polish
!!!GTL: Śpiewnik dla dzieci, op. 34
!!!OTL: 47. Odlot
!!!OMV: 047
!!!PDT: 1890
!!!AGN: Secular; Song; Children
!!!YEC: Copyright 2022 Narodowy Instytut Fryderyka Chopina (https://polishscores.org)
!!!YEM: License CC-BY-4.0 (https://creativecommons.org/licenses/by/4.0)
!!!SMS-siglum: PL-LŹu
!!!SMS-shelfmark: M 15111
!!!SMS-variant:
!!!SMS-altvar:
!!!SMS-shelfwork: 001-047 G
!!!NIFC-rismSourceID: 1001234040
!!!NIFC-rismChildID: 1001234040
!!!NIFC-islandoraID: pl-lzu:5455
!!!URL-pdf-islandora: https://repozytorium.nifc.pl/islandora/object/pl-lzu%3A5455/datastream/PDF/view
!!!URL-scan: https://polish.musicsources.pl/pl/lokalizacje/galeria/druki-muzyczne/23228/58 @EN{Scan on Polish Music Sources Website} @PL{Skany w portalu Dziedzictwo Muzyki Polskiej w otwartym dostępie}
!!!IIIF:
!!!ONB-nifc:
!!!AIN: 1 piano 1 vox
!!!key: e
!!!OMD: Andante mesto.
**kern	**kern	**dynam	**kern	**text	**dynam
*part2	*part2	*part2	*part1	*part1	*part1
*staff3	*staff2	*staff2,3	*staff1	*staff1	*staff1
*I"[Piano]	*I"[Piano]	*	*I"[Voice]	*	*
*I'pf	*I'pf	*	*I'V	*	*
*Ipiano	*Ipiano	*	*Ivox	*	*
*ICklav	*ICklav	*	*ICvox	*	*
*IGacomp	*IGacomp	*	*IGsolo	*	*
*clefF4	*clefG2	*	*clefG2	*	*
*k[f#]	*k[f#]	*	*k[f#]	*	*
*e:	*e:	*	*e:	*	*
*M3/4	*M3/4	*	*M3/4	*	*
=1	=1	=1	=1	=1	=1
!	!LO:TX:a:i:t=Wolno i tęsknie.	!LO:DY:rj	!	!	!
2E\	2e 2B 2G/	p	2.r	.	.
4C/	4e 4A#X 4F#/	.	.	.	.
=2	=2	=2	=2	=2	=2
2.BB 2.EE/	2.e 2.B 2.G/	.	2.r	.	.
=3	=3	=3	=3	=3	=3
!	!	!	!LO:TX:a:t=espressivo	!	!
[<2.E\	[>2.e [>2.B [<2.G/	.	4.b/	A	p
.	.	.	8g/	te	.
.	.	.	8b/	dzi-	.
.	.	.	8a/	-kie	.
=4	=4	=4	=4	=4	=4
2.E\]	2.e] 2.B] 2.G/]	.	(8g/L	gą-	.
.	.	.	8f#/J)	.	.
.	.	.	4e/	-ski	.
.	.	.	8r	.	.
.	.	.	8e/	Na	.
=5	=5	=5	=5	=5	=5
2.AA/	2.e 2.c 2.A/	.	(4.ee\	za-	.
.	.	.	8dd\)	.	.
.	.	.	8ee\	-chód	.
.	.	.	8cc\	le-	.
!!LO:PB:g=original
=6	=6	=6	=6	=6	=6
(4AA/	4e 4c 4F#/	.	(8a/L	-cia-	.
.	.	.	8cc/J)	.	.
4EE/	2e 2B 2G/	.	4b\	-ły,	.
4GG/)	.	.	4r	.	.
=7	=7	=7	=7	=7	=7
2.BB\	2.d#X 2.B< 2.F#</	.	4.b/	W zi-	.
.	.	.	8f#/	-mnej	.
.	.	.	8b\	ro-	.
.	.	.	8cc\	-sie	.
=8	=8	=8	=8	=8	=8
(<2E\	2.e 2.B< 2.G</	.	(8b/L	no-	.
.	.	.	8a/J)	.	.
.	.	.	4g/	-cą	.
4C#X\)	.	.	8r	.	.
.	.	.	8g/	Pió-	.
=9	=9	=9	=9	=9	=9
(<4Dn\	4f# 4B< 4F#</	.	4f#/	-recz-	.
4BB/	(4f# 4d 4B/	.	4b/	-ka	.
4FF#/)	4f# 4e 4A#X/)	.	(8cc#X\L	ma-	.
.	.	.	8dd\J)	.	.
=10	=10	=10	=10	=10	=10
2BB/	(4g 4e 4A#X/	.	4cc#X\	-cza-	.
.	4f# 4d 4B/)	.	4b\	-ły.	.
4An 4BB\	4b 4d#X/	.	4r	.	.
!!LO:LB:g=original
=11	=11	=11	=11	=11	=11
2G 2E\	(4.b 4.e/	.	4.b/	A	.
.	8g/	.	8g/	te	.
4E\	8bL 8e 8dn/	.	8b/	dzi-	.
.	8aJ 8e 8cn/)	.	8a/	-kie	.
=12	=12	=12	=12	=12	=12
(8E\L	(>8gL 8e 8B/	<	(8g/L	gą-	<
8BB\J	8f#J 8dn 8B/	.	8f#/J)	.	.
4C\)	2e 2c 2G</)	.	4e/	-ski	.
4BB\	.	.	8r	.	.
.	.	.	8e/	Pió-	f
=13	=13	=13	=13	=13	=13
!	!	!LO:DY:rj	!	!	!
2.AA 2.DD\	2.e 2.c 2.F#</	f	(4.ee\	-recz-	.
.	.	.	8dd\)	.	.
.	.	.	8ee\	-ka	.
.	.	.	8cc\	gu-	.
=14	=14	=14	=14	=14	=14
4D 4DD\	4f# 4c 4F#</	.	(8a/L	-bi-	.
.	.	.	8cc/J)	.	.
4D 4GG\	4g 4B< 4G</	.	4b\	-ły,	.
(8FF#/L	4r	>	4r	.	.
8EE/J)	.	]	.	.	.
!!LO:LB:g=original
=15	=15	=15	=15	=15	=15
4D 4DD\	4f# 4B< 4F#</	.	4.b/	Z o-	.
4C 4CC\	4f# 4e 4F#</	.	.	.	.
.	.	.	8f#/	-nej	.
4BB 4BBB\	4f# 4d 4F#</	.	8b\	to	.
.	.	.	8cc\	ża-	.
=16	=16	=16	=16	=16	=16
2BB 2EE/	(4f# 4d#X 4A/	.	(8b/L	-ło-	.
.	.	.	8a/J)	.	.
.	4e 4G/)	>	4g/	-ści,	.
(8FF#/L	4r	]]	4r	.	.
8GG/J)	.	.	.	.	.
=17	=17	=17	=17	=17	=17
!	!	!LO:DY:rj	!	!	!LO:DY:rj
(4AA/	4f# 4c 4A 4F#/	p	8f#/	Że	p
.	.	.	8g/	nas	.
4FF#/	4f# 4c 4A/	.	4a/	po-	.
4BB/)	(8d#XL 8B 8A/	.	(8d#X/L	-rzu-	.
.	8g/J)	.	8g/J)	.	.
=18	=18	=18	=18	=18	=18
4BB 4EE/	(8f#L 8A/	.	(8f#/L	-ci-	.
.	8e/J)	.	8e/J)	.	.
4BB 4EE;/	4e 4G;/	.	4e;/	-ły!	.
4r	4r	.	4r	.	.
==	==	==	==	==	==
*-	*-	*-	*-	*-	*-
!!!system-decoration: p1{p2}
!!!RDF**kern: > = above
!!!RDF**kern: < = below
!!!ENC: Andrzej Gręziak
!!!END: 2025-03-07
!!!ENC: Marta Lawrence
!!!END: 2025-03-23
